X: 052
M: C|
L: 1/8
K: Bb
V: 1
f | dBdf ecdB | (A/B/c) dB GcAF | dBdf bfdf | ecdB AFB2 |
    fdge dfdB | ceAc BdFB | GBeg fabf | ecdB AcB |]
V: 2 clef=bass middle=d
z | b2f2 B2d2 | c2e2 d2G2 | B2B2 e2f2 | e2f2 B2b :|
z | b2b2 c'2b2 | f2b2 e2f2 | b2B2 d2B2 | c2d2 f2B2 |
    B2e2 B2B2 | e2f2 B2d2 | e2E2 F2B2 | e2b2 f2B |]


